X: 25836
T: Master McDermott's
R: reel
M: 4/4
K: Dmajor
A,B,|DF~F2 DEFA|df{a}fe dB~B2|AF~F2 dF~F2|BFAF EGFE|
DF~F2 DEFA|df{a}fe dB~B2|AF~F2 dFAF|EGFE D2:|
(3ABc|df{a}fe dfaf|~g2bg af{a}fe|dB{d}BA FAde|fdgf e2 de|
a{b}af ~g2 bg|af{a}fe dB~B2|AF~F2 dFAF|EGFE D2:|

